advanced/wallets/react-wallet-v2/public/icons/accounts-icon.svg

<svg fill="none" height="512" viewBox="0 0 512 512" width="512" xmlns="http://www.w3.org/2000/svg" xmlns:xlink="http://www.w3.org/1999/xlink"><linearGradient id="a"><stop offset="0" stop-color="#a562d5"/><stop offset="1" stop-color="#306feb"/></linearGradient><linearGradient id="b" gradientUnits="userSpaceOnUse" x1="160" x2="380.191" xlink:href="#a" y1="144.018" y2="421.745"/><linearGradient id="c" gradientUnits="userSpaceOnUse" x1="64" x2="96.3014" xlink:href="#a" y1="128.003" y2="159.69"/><linearGradient id="d" gradientUnits="userSpaceOnUse" x1="64" x2="96.3014" xlink:href="#a" y1="240.003" y2="271.69"/><linearGradient id="e" gradientUnits="userSpaceOnUse" x1="64" x2="96.3014" xlink:href="#a" y1="352.003" y2="383.69"/><g stroke-linecap="round" stroke-linejoin="round"><path d="m160 368h288m-288-224h288zm0 112h288z" stroke="url(#b)" stroke-width="48"/><g stroke-width="32"><path d="m80 160c8.8366 0 16-7.163 16-16s-7.1634-16-16-16-16 7.163-16 16 7.1634 16 16 16z" stroke="url(#c)"/><path d="m80 272c8.8366 0 16-7.163 16-16s-7.1634-16-16-16-16 7.163-16 16 7.1634 16 16 16z" stroke="url(#d)"/><path d="m80 384c8.8366 0 16-7.163 16-16s-7.1634-16-16-16-16 7.163-16 16 7.1634 16 16 16z" stroke="url(#e)"/></g></g></svg>

<svg width="512" height="512" viewBox="0 0 512 512" fill="none" xmlns="http://www.w3.org/2000/svg">
<path d="M160 368H448M160 144H448H160ZM160 256H448H160Z" stroke="url(#paint0_linear_46_13)" stroke-width="48" stroke-linecap="round" stroke-linejoin="round"/>
<path d="M80 160C88.8366 160 96 152.837 96 144C96 135.163 88.8366 128 80 128C71.1634 128 64 135.163 64 144C64 152.837 71.1634 160 80 160Z" stroke="url(#paint1_linear_46_13)" stroke-width="32" stroke-linecap="round" stroke-linejoin="round"/>
<path d="M80 272C88.8366 272 96 264.837 96 256C96 247.163 88.8366 240 80 240C71.1634 240 64 247.163 64 256C64 264.837 71.1634 272 80 272Z" stroke="url(#paint2_linear_46_13)" stroke-width="32" stroke-linecap="round" stroke-linejoin="round"/>
<path d="M80 384C88.8366 384 96 376.837 96 368C96 359.163 88.8366 352 80 352C71.1634 352 64 359.163 64 368C64 376.837 71.1634 384 80 384Z" stroke="url(#paint3_linear_46_13)" stroke-width="32" stroke-linecap="round" stroke-linejoin="round"/>
<defs>
<linearGradient id="paint0_linear_46_13" x1="160" y1="144.018" x2="380.191" y2="421.745" gradientUnits="userSpaceOnUse">
<stop stop-color="#A562D5"/>
<stop offset="1" stop-color="#306FEB"/>
</linearGradient>
<linearGradient id="paint1_linear_46_13" x1="64" y1="128.003" x2="96.3014" y2="159.69" gradientUnits="userSpaceOnUse">
<stop stop-color="#A562D5"/>
<stop offset="1" stop-color="#306FEB"/>
</linearGradient>
<linearGradient id="paint2_linear_46_13" x1="64" y1="240.003" x2="96.3014" y2="271.69" gradientUnits="userSpaceOnUse">
<stop stop-color="#A562D5"/>
<stop offset="1" stop-color="#306FEB"/>
</linearGradient>
<linearGradient id="paint3_linear_46_13" x1="64" y1="352.003" x2="96.3014" y2="383.69" gradientUnits="userSpaceOnUse">
<stop stop-color="#A562D5"/>
<stop offset="1" stop-color="#306FEB"/>
</linearGradient>
</defs>
</svg>
